src/main/resources/icons/ReactorIcons/icons/projectReactor.svg

<svg xmlns="http://www.w3.org/2000/svg" width="16" height="16" viewBox="0 0 16 16">
  <path fill="#6DB33F" d="M11.5555943,1.76455004 C12.5802687,2.36358316 13.099294,3.58451367 13.1772756,5.03406933 C14.2846153,5.81692053 15,6.84714158 15,8 C15,9.15308343 14.284336,10.1834816 13.1766239,10.9663713 C13.099294,12.4154863 12.5802687,13.6364168 11.5555943,14.23545 C10.5451318,14.8260916 9.26327205,14.6832372 8.00158249,14.049753 C6.7388023,14.6830056 5.45568569,14.8265694 4.44440573,14.23545 C3.41973133,13.6364168 2.900706,12.4154863 2.82272441,10.9659307 C1.71538468,10.1830795 1,9.15285842 1,8 C1,6.84691657 1.71566395,5.8165184 2.82337608,5.0336287 C2.90094515,3.58395119 3.41996738,2.36344517 4.44440573,1.76455004 C5.45515176,1.17374268 6.73744745,1.31684301 7.99947974,1.95078047 C9.26187515,1.31691865 10.5445813,1.17358663 11.5555943,1.76455004 Z M12.4280781,11.4276196 L12.2522716,11.5178701 C11.6888389,11.8013036 11.0662274,12.0312091 10.4115554,12.1971268 C9.89407655,12.7502377 9.32891988,13.2314444 8.74658349,13.6154316 C9.66886003,13.9806778 10.5440279,14.0159109 11.2023132,13.6311247 C11.8711527,13.2401169 12.2822176,12.4384609 12.4280781,11.4276196 Z M3.5723612,11.4268805 L3.59512609,11.5738603 C3.75844459,12.5156014 4.16142421,13.2591616 4.79766826,13.6311138 C5.45582648,14.0158257 6.33077583,13.9806881 7.25319408,13.6159364 C6.67113915,13.2314946 6.1059505,12.7502666 5.58799057,12.1968372 C4.86482307,12.0136103 4.18075254,11.7522537 3.5723612,11.4268805 Z M9.1638347,12.4291055 L9.04286526,12.4432443 C8.69755245,12.4806361 8.34877622,12.5 8,12.5 C7.61099923,12.5 7.22199847,12.4759121 6.83780294,12.4295897 C7.21700587,12.7532182 7.60822861,13.0300786 7.99910922,13.2535937 C8.39149826,13.0307801 8.78368763,12.7534122 9.1638347,12.4291055 Z M8,4.2 C7.29515236,4.2 6.60609419,4.28206415 5.95779221,4.43018938 C5.51565572,4.92530355 5.10798699,5.4848727 4.75908408,6.09674424 C4.40686158,6.71443735 4.13007982,7.35828601 3.92767952,7.99957101 C4.1297644,8.64098019 4.40666087,9.28521066 4.75908408,9.90325576 C5.10830782,10.5156899 5.5164055,11.0757255 5.95892087,11.5703293 C6.60707992,11.7180532 7.29565651,11.8 8,11.8 C8.704483,11.8 9.39319286,11.7180207 10.0412016,11.5700405 C10.4841401,11.0749768 10.8919256,10.5152806 11.2409159,9.90325576 C11.5933217,9.28524127 11.8702082,8.641044 12.0726363,7.99942803 C11.8700299,7.35854125 11.5932082,6.71455979 11.2409159,6.09674424 C10.8917784,5.48446122 10.4837959,4.92455096 10.0414068,4.43003688 C9.39362958,4.28203125 8.70470637,4.2 8,4.2 Z M3.63359409,9.20924236 L3.61431733,9.31570753 C3.54419052,9.75280196 3.510197,10.1789032 3.51197277,10.5841421 C3.8893848,10.8213955 4.31331484,11.0324563 4.77197483,11.2093153 C4.54810584,10.9022747 4.34011479,10.581654 4.15099821,10.25 C3.95876615,9.91288237 3.78603555,9.56436484 3.63359409,9.20924236 Z M12.3676209,9.20800626 L12.311015,9.33597661 C12.1724978,9.64731047 12.018314,9.953077 11.8490018,10.25 C11.6598852,10.581654 11.4518942,10.9022747 11.2285587,11.2089215 C11.6866465,11.0324618 12.1104267,10.8214845 12.4875463,10.5839936 C12.4896832,10.1457179 12.449857,9.68287018 12.3676209,9.20800626 Z M2.82786424,5.92040297 L2.72848106,6.00944645 C2.08326774,6.60231522 1.7,7.29175459 1.7,8 C1.7,8.74399232 2.12293306,9.46723231 2.82816391,10.0795762 C2.8696752,9.40434691 2.99547068,8.69955499 3.19963954,7.99937786 C2.99531049,7.29954733 2.86964857,6.59522306 2.82786424,5.92040297 Z M13.1718361,5.92042381 C13.132159,6.56603114 13.0154045,7.23866606 12.826777,7.90845201 L12.8009682,8.00146293 C13.0046779,8.70060728 13.1302417,9.4043189 13.1720736,10.0785934 C13.8772044,9.4669973 14.3,8.74387144 14.3,8 C14.3,7.25600768 13.8770669,6.53276769 13.1718361,5.92042381 Z M8,6.5 C8.82842712,6.5 9.5,7.17157288 9.5,8 C9.5,8.82842712 8.82842712,9.5 8,9.5 C7.17157288,9.5 6.5,8.82842712 6.5,8 C6.5,7.17157288 7.17157288,6.5 8,6.5 Z M11.2280252,4.79068474 L11.3119396,4.90722377 C11.5038196,5.17840137 11.6836271,5.45998219 11.8490018,5.75 C12.0411885,6.08703812 12.213883,6.43547077 12.366298,6.79050638 C12.4500533,6.3163072 12.4899088,5.85422337 12.4880299,5.41647502 C12.1106152,5.17860451 11.6866852,4.96754371 11.2280252,4.79068474 Z M4.77216642,4.79008296 C4.31397583,4.96722836 3.88985021,5.17834117 3.51245374,5.41600636 C3.51088094,5.74459723 3.53287277,6.0869486 3.5786171,6.43778516 L3.632,6.79011526 L3.79224359,6.43843264 C3.9031878,6.20488052 4.02275324,5.97490338 4.15099821,5.75 C4.34031946,5.41798704 4.54855606,5.09703136 4.77216642,4.79008296 Z M8.85071775,2.34429521 L8.74695251,2.38481172 C9.31530243,2.75962117 9.8672815,3.22703344 10.3749578,3.76378218 L10.4115533,3.80287271 C11.1351839,3.98626678 11.8196443,4.24783877 12.4283124,4.57346301 C12.2824206,3.561926 11.8713236,2.759983 11.2023317,2.36888619 C10.5689378,1.99864968 9.73476004,2.01726206 8.85071775,2.34429521 Z M4.79768683,2.36887534 C4.12891032,2.75984622 3.71785991,3.56138801 3.57196318,4.57209459 C4.18074265,4.24712294 4.86501834,3.98595004 5.58832246,3.80276633 C6.1057732,3.24989027 6.67100271,2.76860667 7.25341651,2.38456837 C6.33113997,2.01932224 5.45597213,1.98408913 4.79768683,2.36887534 Z M8.00089078,2.74640628 L7.89132375,2.80904221 C7.53588079,3.02105625 7.18106665,3.27665621 6.8361653,3.57089447 C7.22092745,3.52415429 7.61046372,3.5 8,3.5 C8.38900077,3.5 8.77800153,3.52408793 9.16219706,3.57041033 C8.78299413,3.24678179 8.39177139,2.96992141 8.00089078,2.74640628 Z"/>
</svg>

<svg xmlns="http://www.w3.org/2000/svg" width="16" height="16" viewBox="0 0 16 16"><rect id="frame" width="16" height="16" fill="none"/><path fill="#6DB33F" d="M11.556 1.765c1.024.599 1.543 1.82 1.621 3.27C14.285 5.816 15 6.846 15 8c0 1.153-.716 2.183-1.823 2.966-.078 1.45-.597 2.67-1.621 3.27-1.01.59-2.293.447-3.554-.186-1.263.633-2.546.777-3.558.185-1.024-.599-1.543-1.82-1.621-3.27C1.715 10.184 1 9.154 1 8c0-1.153.716-2.183 1.823-2.966.078-1.45.597-2.67 1.621-3.27 1.011-.59 2.293-.447 3.555.187 1.263-.634 2.546-.777 3.557-.186zm.872 9.663l-.176.09a9.071 9.071 0 0 1-1.84.68 9.364 9.364 0 0 1-1.665 1.417c.922.366 1.797.4 2.455.016.67-.39 1.08-1.193 1.226-2.203zm-8.856-.001l.023.147c.163.942.566 1.685 1.203 2.057.658.385 1.533.35 2.455-.015a9.403 9.403 0 0 1-1.665-1.42 8.961 8.961 0 0 1-2.016-.77zm5.592 1.002l-.121.014a9.697 9.697 0 0 1-2.205-.013c.379.323.77.6 1.161.824.392-.223.785-.5 1.165-.825zM8 4.2c-.705 0-1.394.082-2.042.23A9.79 9.79 0 0 0 3.928 8a9.803 9.803 0 0 0 2.03 3.57 9.213 9.213 0 0 0 4.083 0A9.749 9.749 0 0 0 12.073 8a9.753 9.753 0 0 0-2.031-3.57A9.194 9.194 0 0 0 8 4.2zM3.634 9.21l-.02.106a7.82 7.82 0 0 0-.102 1.268c.377.237.801.448 1.26.625a10.239 10.239 0 0 1-1.138-2zm8.734-.002l-.057.128a10.294 10.294 0 0 1-1.082 1.873 7.276 7.276 0 0 0 1.259-.625 7.873 7.873 0 0 0-.12-1.376zM2.828 5.92l-.1.09C2.083 6.601 1.7 7.291 1.7 8c0 .744.423 1.467 1.128 2.08.042-.676.167-1.38.372-2.08a9.58 9.58 0 0 1-.372-2.08zm10.344 0a9.539 9.539 0 0 1-.345 1.988l-.026.093c.204.7.33 1.403.371 2.078C13.877 9.467 14.3 8.744 14.3 8c0-.744-.423-1.467-1.128-2.08zM8 6.5a1.5 1.5 0 1 1 0 3 1.5 1.5 0 0 1 0-3zm3.228-1.71l.084.117a10.256 10.256 0 0 1 1.054 1.884c.084-.475.124-.937.122-1.375a7.28 7.28 0 0 0-1.26-.625zm-6.456 0a7.329 7.329 0 0 0-1.26.626c-.001.329.02.67.067 1.022l.053.352.16-.352a10.39 10.39 0 0 1 .98-1.648zm4.079-2.446l-.104.04c.568.376 1.12.843 1.628 1.38l.037.039a8.964 8.964 0 0 1 2.016.77c-.146-1.011-.557-1.813-1.226-2.204-.633-.37-1.467-.352-2.351-.025zm-4.053.025c-.67.39-1.08 1.192-1.226 2.203a8.988 8.988 0 0 1 2.016-.77 9.372 9.372 0 0 1 1.665-1.417c-.922-.366-1.797-.4-2.455-.016zM8 2.746l-.11.063c-.355.212-.71.468-1.055.762a9.662 9.662 0 0 1 2.326 0c-.379-.324-.77-.601-1.161-.825z"/></svg>
